X:305
T: Se\'an Frank
S: "Ceol Rince na hEireann" 1/182
Z: B.Black
L: 1/8
M: 4/4
R: reel
K: Edor
EF|(3GFE BE (3GFE BE|(3FED AD (3FED AD|(3GFE BE (3GFE BE|\
AGFG E3F|
(3GFE BE (3GFE BE|ABAG FDDF|G2 GF GBdB|AGFG E3||
F|G2 GF GBdB|ABAG FA A2|(3Bcd ed efge|fedf e3f|
efed B2 dB|ABAG FDDF|G2 GF GBdB|AGFG E4||
